app/assets/images/icons/eye-closed.svg

<?xml version="1.0" encoding="UTF-8" standalone="no"?>
<svg width="30px" height="30px" viewBox="0 0 30 30" version="1.1" xmlns="http://www.w3.org/2000/svg" xmlns:xlink="http://www.w3.org/1999/xlink">
    <!-- Generator: Sketch 3.7.2 (28276) - http://www.bohemiancoding.com/sketch -->
    <title>eye-closed</title>
    <desc>Created with Sketch.</desc>
    <defs></defs>
    <g id="Icons" stroke="none" stroke-width="1" fill="none" fill-rule="evenodd">
        <g id="eye-closed" fill="#050505">
            <path d="M29.3717659,15 C29.3516146,14.3892755 28.9673572,13.9335543 28.2686618,13.9331055 C27.6133147,13.9326846 27.4082093,14.7552755 27.3821543,14.9634163 C27.3731079,15.9237061 26.197522,17.3767774 24.4080811,19.4425049 C23.26048,20.7672935 21.5850024,21.8879033 20.7122192,22.4227295 C18.4798328,23.7906967 16.0673988,23.9997537 15.0018847,23.9999998 C13.9307552,23.9997537 11.5183212,23.7906967 9.28593475,22.4227295 C8.41315164,21.8879033 6.73767403,20.7672935 5.59007294,19.4425049 C3.80063198,17.3767774 2.62504608,15.9237061 2.62504608,15 C2.58994464,14.7552755 2.38483933,13.9326846 1.72949224,13.9331055 C1.03079684,13.9335543 0.646539358,14.3892755 0.627386955,14.9796643 C0.626221823,15.017692 0.626176709,15.0353697 0.626252697,15.0530303 C0.623935446,15.5767641 0.734228961,16.0995402 0.961746311,16.5255141 C0.989964038,16.5795043 1.01994858,16.6319343 1.05169501,16.6826373 C1.05169501,16.6826373 1.82983152,18.1483687 3.33039191,19.9171384 L2.02322143,21.0139846 C1.84130162,21.1666335 1.7265827,21.3657769 1.68091799,21.5767759 C1.61459293,21.87102 1.68291779,22.1892821 1.8909416,22.4371953 C2.2484184,22.8632195 2.87991224,22.9127577 3.30695064,22.5544299 L4.69714454,21.3879187 C5.17547031,21.8568907 5.69949265,22.3253127 6.26831377,22.7741241 L5.02206665,24.2593435 C4.91033191,24.3925038 4.83838106,24.5439445 4.80457094,24.7001609 C4.72459027,25.0550024 4.84199252,25.4357862 5.13745527,25.6837089 C5.56347953,26.0411857 6.19398176,25.9803135 6.55230953,25.5532751 L7.91681989,23.927115 C8.46027298,24.2603411 9.03457668,24.5677518 9.6392037,24.8381522 L9.26620145,26.9535531 C9.16791385,27.5109697 9.53183983,28.0253323 10.0757341,28.1212355 C10.6100852,28.2154561 11.1138886,27.8674827 11.2280069,27.3406241 C11.2315838,27.3247429 11.2348058,27.3086969 11.237663,27.2924931 L11.5486912,25.5285645 C11.9366279,25.6364649 12.3347071,25.7279456 12.7428241,25.8007832 C13.1513032,25.8738027 13.5697661,25.928019 13.998154,25.9613147 L13.998154,26.8531917 L13.998154,27.7534252 C13.998154,28.3054784 14.4332046,28.7456577 14.9746167,28.7580865 C15.5547803,28.7578584 15.998154,28.3081262 15.998154,27.7534252 L15.998154,26.8532153 L15.998154,25.9613619 C16.4323306,25.9276563 16.8562919,25.8724857 17.2699286,25.798169 C17.6728876,25.7258606 18.0661184,25.6352461 18.4494663,25.5285842 L18.760491,27.2924931 C18.7633482,27.3086969 18.7665702,27.3247429 18.7701471,27.3406241 C18.8842654,27.8674827 19.3880688,28.2154561 19.9224199,28.1212355 C20.4663142,28.0253323 20.8302401,27.5109697 20.7319525,26.9535531 L20.3589503,24.8381522 C20.9635773,24.5677518 21.537881,24.2603411 22.0813341,23.927115 L23.4458445,25.5532751 C23.8041722,25.9803135 24.4346745,26.0411857 24.8606987,25.6837089 C25.1561615,25.4357862 25.2735637,25.0550024 25.1935831,24.7001609 C25.1597729,24.5439445 25.0878221,24.3925038 24.9760873,24.2593435 L23.7298402,22.7741241 C24.2986613,22.3253127 24.8226837,21.8568907 25.3010095,21.3879187 L26.6912033,22.5544299 C27.1182418,22.9127577 27.7497356,22.8632195 28.1072124,22.4371953 C28.3152362,22.1892821 28.3835611,21.87102 28.317236,21.5767759 C28.2715713,21.3657769 28.1568524,21.1666335 27.9749326,21.0139846 L26.6677621,19.9171384 C28.1683225,18.1483687 28.946459,16.6826373 28.946459,16.6826373 C28.9782054,16.6319343 29.00819,16.5795043 29.0364077,16.5255141 C29.263925,16.0995402 29.3742185,15.5767641 29.3719013,15.0530303 C29.3719773,15.0353697 29.3719322,15.017692 29.3717659,15 Z" id="Combined-Shape"></path>
        </g>
    </g>
</svg>

<?xml version="1.0" encoding="UTF-8" standalone="no"?>
<svg width="30" height="30" viewBox="0 0 30 30" xmlns="http://www.w3.org/2000/svg">
  <path d="M29.372 15c-.02-.61-.405-1.066-1.103-1.067-.656 0-.86.822-.887 1.03-.009.96-1.184 2.414-2.974 4.48-1.148 1.324-2.823 2.445-3.696 2.98C18.48 23.79 16.067 24 15.002 24c-1.071 0-3.484-.21-5.716-1.577-.873-.535-2.548-1.656-3.696-2.98C3.8 17.377 2.625 15.923 2.625 15c-.035-.245-.24-1.067-.896-1.067-.698 0-1.082.456-1.102 1.047a1.854 1.854 0 0 0 0 .073c-.003.524.107 1.047.335 1.473.028.054.058.106.09.157 0 0 .778 1.465 2.278 3.234l-1.307 1.097a1.013 1.013 0 0 0-.132 1.423c.357.426.989.476 1.416.117l1.39-1.166c.478.469 1.002.937 1.571 1.386L5.022 24.26a1.02 1.02 0 0 0-.217.441.995.995 0 0 0 .332.984 1.002 1.002 0 0 0 1.415-.13l1.365-1.627c.543.333 1.118.64 1.722.911l-.373 2.116a1 1 0 1 0 1.972.338l.31-1.763a12.937 12.937 0 0 0 2.45.432v1.792a1 1 0 0 0 .977 1.005c.58 0 1.023-.45 1.023-1.005v-1.792a12.783 12.783 0 0 0 2.451-.432l.311 1.763.01.049a1 1 0 1 0 1.962-.387l-.373-2.116c.605-.27 1.179-.578 1.722-.91l1.365 1.625c.358.427.989.488 1.415.13a.995.995 0 0 0 .333-.983 1.02 1.02 0 0 0-.218-.44l-1.246-1.486a19.521 19.521 0 0 0 1.571-1.386l1.39 1.166a1.002 1.002 0 0 0 1.416-.117 1.013 1.013 0 0 0-.132-1.423l-1.307-1.097c1.5-1.769 2.278-3.234 2.278-3.234.032-.051.062-.103.09-.157.228-.426.338-.95.336-1.473V15z" fill="#050505" fill-rule="evenodd"/>
</svg>
